X:304
T: Martinsgans
N: A0351
O: Europa, Mitteleuropa, Deutschland
N: Joh. Ott 1544 No. 13.
R: Romanze, Ballade, Lied
M: 4/2
L: 1/4
K: F
f4 | e4f2d2 | c4z2c2 | A2B2c4 | z2
c2d2d2 | c3BA2G2 | A2B2G4 | F4
f4 | e4f2d2 | c4z2c2 | A2B2c4 | z2
c2d2d2 | c3BA2G2 | A2B2G4 | F4z2
F2 | A3Bc2F2 | A3Bc2c2 | d2e2f3e | d2c2d4 | c4z2
c2 | c2c2A2F2 | c2d2B4 | A4z2A2 | d2d2c3B | A2B2G4 | F4

@@@ Tune index: 304
